public/logo-guide.svg

<svg xmlns="http://www.w3.org/2000/svg" width="554" height="322" viewBox="0 0 554 322" xmlns:xlink="http://www.w3.org/1999/xlink">
  <defs>
    <ellipse id="a" cx="54" cy="161" rx="54" ry="54"/>
    <mask id="f" width="108" height="108" x="0" y="0" fill="#fff">
      <use xlink:href="#a"/>
    </mask>
    <circle id="b" cx="499" cy="161" r="54"/>
    <mask id="g" width="108" height="108" x="0" y="0" fill="#fff">
      <use xlink:href="#b"/>
    </mask>
    <ellipse id="c" cx="391" cy="54" rx="54" ry="54"/>
    <mask id="h" width="108" height="108" x="0" y="0" fill="#fff">
      <use xlink:href="#c"/>
    </mask>
    <circle id="d" cx="391" cy="268" r="54"/>
    <mask id="i" width="108" height="108" x="0" y="0" fill="#fff">
      <use xlink:href="#d"/>
    </mask>
    <path id="e" d="M0 0h554v322H0z"/>
    <mask id="j" width="554" height="322" x="0" y="0" fill="#fff">
      <use xlink:href="#e"/>
    </mask>
    <path id="k" d="M174.421278 195.3942c-4.8678-5.812004-7.814268-13.301928-7.814268-21.478162l.013675-53.147244c0-4.334176 3.505188-7.858644 7.814268-7.858644 4.308592 0 7.814268 3.524468 7.814268 7.858644l-.013675 53.147244c0 8.176234-2.946467 15.666158-7.814268 21.478162zm58.607011-21.478162c0 18.417298-14.733314 33.400096-33.046051 33.400096-7.376181 0-14.257621-2.460589-19.775471-6.567634 6.169853-7.221988 9.843048-16.586974 9.843048-26.832462l.013675-53.147244c0-8.666385-7.011353-15.717287-15.628537-15.717287-8.617672 0-15.628536 7.050902-15.628536 15.717287l-.013675 53.147244c0 10.245488 3.919833 19.610474 10.089686 26.832462-5.51785 4.107045-12.39929 6.567634-19.775471 6.567634-18.312737 0-33.292689-14.982798-33.292689-33.400096v-64.834672H108v64.834672c0 22.749507 18.567678 41.25874 41.189495 41.25874 9.590549 0 18.48514-3.351907 25.478421-8.91859 6.993282 5.566683 15.682748 8.91859 25.273297 8.91859 22.621329 0 40.901832-18.509233 40.901832-41.25874v-64.834672h-7.814756v64.834672zm31.270307 39.176949h7.814268V108.868246h-7.814268v104.224741zm76.227111-106.041939c-15.419993 0-29.050518 7.846845-37.156356 19.777628V108.86859h-7.814268v104.224741h7.814268v-60.808745h.004395c0-20.60061 16.666369-37.359653 37.151961-37.359653v-7.873885zm14.645696 83.847035c-15.204612-18.137563-14.325018-45.372668 2.644153-62.454218 16.969172-17.08155 44.025098-17.966969 62.043335-2.661664l-64.687488 65.115882zm75.756399-65.133581c-.846872-.985218-1.732814-1.947331-2.661735-2.882895-20.946634-21.085354-55.029541-21.085354-75.976175 0-20.946634 21.085353-20.946634 55.393974 0 76.479328 20.943704 21.081912 55.019285 21.084862 75.966895.008849l-5.525664-5.562258c-16.96966 17.072701-44.019237 17.95517-62.034055 2.652815l32.334464-32.549092 37.89627-38.146747zm7.224779-16.00071h2.734017v7.086791h.832708v-7.086791h2.745738v-.779227h-6.312463v.779227zm14.525699-.779424l-2.722296 6.826721-2.710086-6.826721H445.9668v7.866018h.797544v-7.027304l2.792624 7.027304h.762379l2.780903-7.003706v7.003706h.809754v-7.866018h-1.231724z"/>
  </defs>
  <g fill="none" fill-rule="evenodd">
    <path fill="#E6EBEE" d="M1 107h552v1H1zm0 107h552v1H1z"/>
    <path fill="#E6EBEE" d="M107 321V1h1v320m336 0V1h1v320"/>
    <use stroke="#FB0807" stroke-opacity=".24" stroke-width="2" mask="url(#f)" xlink:href="#a"/>
    <use stroke="#FB0807" stroke-opacity=".24" stroke-width="2" mask="url(#g)" xlink:href="#b"/>
    <use stroke="#FB0807" stroke-opacity=".24" stroke-width="2" mask="url(#h)" xlink:href="#c"/>
    <use stroke="#FB0807" stroke-opacity=".24" stroke-width="2" mask="url(#i)" xlink:href="#d"/>
    <use fill="#BAC8D1" fill-opacity=".08" stroke="#BAC8D1" stroke-opacity=".4" stroke-width="2" mask="url(#j)" xlink:href="#e"/>
    <circle cx="391" cy="161" r="54" fill="#FB0807" fill-opacity=".32"/>
    <use fill="#8D989F" xlink:href="#k"/>
    <use fill="#000" fill-opacity=".72" xlink:href="#k"/>
  </g>
</svg>

<?xml version="1.0" encoding="UTF-8"?>
<svg width="560px" height="322px" viewBox="0 0 560 322" version="1.1" xmlns="http://www.w3.org/2000/svg" xmlns:xlink="http://www.w3.org/1999/xlink">
    <!-- Generator: Sketch 39.1 (31720) - http://www.bohemiancoding.com/sketch -->
    <title>logo-guide</title>
    <desc>Created with Sketch.</desc>
    <defs>
        <ellipse id="path-1" cx="54" cy="161" rx="54" ry="54"></ellipse>
        <mask id="mask-2" maskContentUnits="userSpaceOnUse" maskUnits="objectBoundingBox" x="0" y="0" width="108" height="108" fill="white">
            <use xlink:href="#path-1"></use>
        </mask>
        <circle id="path-3" cx="499" cy="161" r="54"></circle>
        <mask id="mask-4" maskContentUnits="userSpaceOnUse" maskUnits="objectBoundingBox" x="0" y="0" width="108" height="108" fill="white">
            <use xlink:href="#path-3"></use>
        </mask>
        <ellipse id="path-5" cx="391" cy="54" rx="54" ry="54"></ellipse>
        <mask id="mask-6" maskContentUnits="userSpaceOnUse" maskUnits="objectBoundingBox" x="0" y="0" width="108" height="108" fill="white">
            <use xlink:href="#path-5"></use>
        </mask>
        <circle id="path-7" cx="391" cy="268" r="54"></circle>
        <mask id="mask-8" maskContentUnits="userSpaceOnUse" maskUnits="objectBoundingBox" x="0" y="0" width="108" height="108" fill="white">
            <use xlink:href="#path-7"></use>
        </mask>
        <rect id="path-9" x="0" y="0" width="554" height="322"></rect>
        <mask id="mask-10" maskContentUnits="userSpaceOnUse" maskUnits="objectBoundingBox" x="0" y="0" width="554" height="322" fill="white">
            <use xlink:href="#path-9"></use>
        </mask>
        <path d="M174.421278,195.3942 C169.553478,189.582196 166.60701,182.092272 166.60701,173.916038 L166.620685,120.768794 C166.620685,116.434618 170.125873,112.91015 174.434953,112.91015 C178.743545,112.91015 182.249221,116.434618 182.249221,120.768794 L182.235546,173.916038 C182.235546,182.092272 179.289079,189.582196 174.421278,195.3942 L174.421278,195.3942 Z M233.028289,173.916038 C233.028289,192.333336 218.294975,207.316134 199.982238,207.316134 C192.606057,207.316134 185.724617,204.855545 180.206767,200.7485 C186.37662,193.526512 190.049815,184.161526 190.049815,173.916038 L190.06349,120.768794 C190.06349,112.102409 183.052137,105.051507 174.434953,105.051507 C165.817281,105.051507 158.806417,112.102409 158.806417,120.768794 L158.792742,173.916038 C158.792742,184.161526 162.712575,193.526512 168.882428,200.7485 C163.364578,204.855545 156.483138,207.316134 149.106957,207.316134 C130.79422,207.316134 115.814268,192.333336 115.814268,173.916038 L115.814268,109.081366 L108,109.081366 L108,173.916038 C108,196.665545 126.567678,215.174778 149.189495,215.174778 C158.780044,215.174778 167.674635,211.822871 174.667916,206.256188 C181.661198,211.822871 190.350664,215.174778 199.941213,215.174778 C222.562542,215.174778 240.843045,196.665545 240.843045,173.916038 L240.843045,109.081366 L233.028289,109.081366 L233.028289,173.916038 Z M264.298596,213.092987 L272.112864,213.092987 L272.112864,108.868246 L264.298596,108.868246 L264.298596,213.092987 Z M340.525707,107.051048 C325.105714,107.051048 311.475189,114.897893 303.369351,126.828676 L303.369351,108.86859 L295.555083,108.86859 L295.555083,213.093331 L303.369351,213.093331 L303.369351,152.284586 L303.373746,152.284586 C303.373746,131.683976 320.040115,114.924933 340.525707,114.924933 L340.525707,107.051048 Z M355.171403,190.898083 C339.966791,172.76052 340.846385,145.525415 357.815556,128.443865 C374.784728,111.362315 401.840654,110.476896 419.858891,125.782201 L355.171403,190.898083 Z M430.927802,125.764502 C430.08093,124.779284 429.194988,123.817171 428.266067,122.881607 C407.319433,101.796253 373.236526,101.796253 352.289892,122.881607 C331.343258,143.96696 331.343258,178.275581 352.289892,199.360935 C373.233596,220.442847 407.309177,220.445797 428.256787,199.369784 L422.731123,193.807526 C405.761463,210.880227 378.711886,211.762696 360.697068,196.460341 L393.031532,163.911249 L430.927802,125.764502 Z M438.152581,109.763792 L440.886598,109.763792 L440.886598,116.850583 L441.719306,116.850583 L441.719306,109.763792 L444.465044,109.763792 L444.465044,108.984565 L438.152581,108.984565 L438.152581,109.763792 Z M452.67828,108.984368 L449.955984,115.811089 L447.245898,108.984368 L445.9668,108.984368 L445.9668,116.850386 L446.764344,116.850386 L446.764344,109.823082 L449.556968,116.850386 L450.319347,116.850386 L453.10025,109.84668 L453.10025,116.850386 L453.910004,116.850386 L453.910004,108.984368 L452.67828,108.984368 Z" id="path-11"></path>
    </defs>
    <g id="M-—-Layout" stroke="none" stroke-width="1" fill="none" fill-rule="evenodd">
        <g id="M-—-Logo" transform="translate(-323.000000, -1392.000000)">
            <g id="Body" transform="translate(180.000000, 324.000000)">
                <g id="logo-guide" transform="translate(143.000000, 1068.000000)">
                    <rect id="Rectangle" fill="#E6EBEE" x="1" y="107" width="552" height="1"></rect>
                    <rect id="Rectangle" fill="#E6EBEE" x="1" y="214" width="552" height="1"></rect>
                    <polygon id="Rectangle" fill="#E6EBEE" points="107 321 107 1 108 1 108 321"></polygon>
                    <polygon id="Rectangle" fill="#E6EBEE" points="444 321 444 1 445 1 445 321"></polygon>
                    <use id="Oval" stroke-opacity="0.24" stroke="#FB0807" mask="url(#mask-2)" stroke-width="2" xlink:href="#path-1"></use>
                    <use id="Oval" stroke-opacity="0.24" stroke="#FB0807" mask="url(#mask-4)" stroke-width="2" xlink:href="#path-3"></use>
                    <use id="Oval" stroke-opacity="0.24" stroke="#FB0807" mask="url(#mask-6)" stroke-width="2" xlink:href="#path-5"></use>
                    <use id="Oval" stroke-opacity="0.24" stroke="#FB0807" mask="url(#mask-8)" stroke-width="2" xlink:href="#path-7"></use>
                    <use id="Rectangle-3" stroke-opacity="0.4" stroke="#BAC8D1" mask="url(#mask-10)" stroke-width="2" fill-opacity="0.08" fill="#BAC8D1" xlink:href="#path-9"></use>
                    <circle id="Oval" fill-opacity="0.32" fill="#FB0807" cx="391" cy="161" r="54"></circle>
                    <g id="Logo">
                        <use fill="#8D989F" xlink:href="#path-11"></use>
                        <use fill-opacity="0.72" fill="#000000" xlink:href="#path-11"></use>
                    </g>
                </g>
            </g>
        </g>
    </g>
</svg>
